X:1
T:Title
%%score { ( 1 4 ) | ( 2 3 ) }
L:1/8
Q:1/4=96
M:4/4
K:F
V:1 treble nm="Grand Piano"
V:4 treble 
V:2 bass 
V:3 bass 
V:1
 [CA]_A=A_A =AFCD | [B,E]2 z2 z4 | [GB]ABG [CE]2 [B,C]2 | c2- [Bc-]2 [Ac]2 G2 | [CA]_A=A_A =AFCD | %5
w: Chas.~H.~Gabriel * * * * * * *|||||
[M:3/4] E2 _E2 =E2 |[M:1/4] Gc |[M:4/4] =B2 G2 F2 D2 | C6 z2 | [Ac]=BcB [Ac]2 [FA]2 | %10
w: |||||
 [GB]ABA [GB]2 G2 | [CA]_A=AE F2 G2 | [EG]6 z2 | [FA]BcA [B,G]F[B,E][CF] | z4 A4 | %15
w: |||||
 .[DFA]2 .[CD^FA]2 [=B,D=FA]2 [_B,CEG]2 | [A,CF]6 z2 |] %17
w: ||
V:2
 z =B, [A,C]2 CA,A,_A, | G,2 ^F,2 G,C,E,G, | z[K:treble] ^FGE[K:bass] C,2 G,2 | z2 D2 C2 B,2 | %4
 z =B, [A,C]2 CA,A,_A, |[M:3/4] [G,C]2 [^F,A,C]2 [G,C]2 |[M:1/4] [E,C]2 | %7
[M:4/4] D,2 [F,G,=B,]2 G,,2 [F,G,]2 | C,>D, E,D, C,B,,A,,G,, | F,2[K:treble] [A,CF]2[K:bass] z4 | %10
 z[K:treble] ^FGF[K:bass] C,E,G,C | z =B,[K:treble][A,C][_B,C] [A,C]2 [=B,DF]2 | %12
 C>=B, CD C[K:bass]_B,A,G, | z[K:treble] GAF[K:bass] z A,G,A, | B,,2 B,,2 A,,>A,, =B,,^C, | %15
 z D z D G,,2 C,2 | F,>D, C,A,, F,,2 z2 |] %17
V:3
 F,2 z2 F,2 z2 | x8 | C,2[K:treble] [B,C]2[K:bass] z4 | F,8 | F,2 z2 F,2 z2 |[M:3/4] x6 | %6
[M:1/4] x2 |[M:4/4] x8 | x8 | z[K:treble] _A=A_A[K:bass] F,,A,,C,F, | %10
 C,2[K:treble] [B,CE]2[K:bass] z4 | F,2[K:treble] z2 z4 | x5[K:bass] x3 | %13
 F,2[K:treble] [A,C]2[K:bass] F,2 z2 | x8 | D,2 D,2 z4 | x8 |] %17
V:4
 x8 | C2- [A,C_E]2 [B,C=E]4 | x8 | [CA]2 z2 z4 | x8 |[M:3/4] x6 |[M:1/4] x2 |[M:4/4] x8 | x8 | x8 | %10
 x8 | x8 | x8 | x8 | [B,DFB]2 [B,DF]2 ^C>C DE | x8 | x8 |] %17

